packages/core/src/svgs/tokens/branded/BIT.svg

<svg width="24" height="24" viewBox="0 0 24 24" fill="none" xmlns="http://www.w3.org/2000/svg">
<path d="M2 4V20.0001H8.68001C10.2201 19.8333 11.1467 18.6 11.3334 17.1134V13.4866C11.2666 12.4534 10.7334 11.6666 9.73332 11.3734V11.1867C10.3201 10.9733 10.5467 10.5133 10.6667 9.92002V6.81334C10.6667 5.31333 9.49999 4 8.00668 4H2ZM12.6666 4V6H14.6666V4H12.6666ZM17.3333 4V8.66668H12.6666V20.0001H14.6666V10.6667H17.3333V20.0001H22V18.0001H19.3333V10.6667H22V8.66668H19.3333V4H17.3333ZM7.67334 6C8.16002 6.11999 8.61335 6.53999 8.66668 7.04V9.92671C8.57334 10.38 8.12001 10.58 7.65334 10.6667H4V6H7.67334ZM8.44002 12.6667C8.89332 12.7801 9.26666 13.0266 9.33339 13.4866V17.0134C9.25997 17.5 8.91339 17.88 8.44002 18.0001H4V12.6667H8.44002Z" fill="#ACFE00"/>
</svg>

<svg xmlns="http://www.w3.org/2000/svg" width="24" height="24" fill="none" viewBox="0 0 24 24">
    <path fill="#ACFE00" d="M2 4v16h6.68c1.54-.167 2.467-1.4 2.653-2.887v-3.626c-.066-1.034-.6-1.82-1.6-2.114v-.186c.587-.214.814-.674.934-1.267V6.813C10.667 5.313 9.5 4 8.007 4zm10.667 0v2h2V4zm4.666 0v4.667h-4.666V20h2v-9.333h2.666V20H22v-2h-2.667v-7.333H22v-2h-2.667V4zm-9.66 2c.487.12.94.54.994 1.04v2.887c-.094.453-.547.653-1.014.74H4V6zm.767 6.667c.453.113.827.36.893.82v3.526A1.19 1.19 0 0 1 8.44 18H4v-5.333z"/>
</svg>
